!!!SOCIAL_FUNCTION:	songs of the buffalo hunt
!!!PDT:	1918

Specific Region: Dakotas, Minnesota, Montana, Nebraska
!!!REG: Dakotas and Montana
!!!LING_GROUP: Siouan
!!!LANG: Tone
!!!OTL@ENG: Song of the Buffalo Hunt (c)
!!!ONM: No. 182
**kern
*Imale
*clefF4
*k[b-e-a-]
*M2/4
*>[A,A]
*>norep[A]
*>A
=!|:
*MM92
12c
12c
12c
=1
12e-
12e-
12e-
8c
8c
=2
2c
=3||
*M3/4
8c
8c
4c
12c
12c
12c
=4
*M2/4
8B-
8G
4B-
=5
4G
8G
8G
=6||
*M3/4
2c
12c
12c
12c
=7||
*M2/4
8B-
8G
4B-
=8
[2G
=9
4G]
==:|!
*-
!!!CNT: Native American -- Sioux
!!!MRD: 1911/07//-1914///
!!!OCL: Frances Densmore
!!!YOR1: Teton Sioux Music, Bulletin 61,
!!!YOR2: Bureau of American Ethnology, Smithsonian Institution
!!!PPR: Government Printing Office
!!!PPP: Washington, D.C.
!!!PDT: 1918///
!!!ENC: Craig Stuart Sapp
!!!END: 2002/03/25/
!!!EEV: 2002/03/31/
!!!AGN: Buffalo Hunt Song
!!!MPN@@SIO: Chetang'-hota
!!!MPN@ENG: Gray Hawk
!!!TXO: Teton Sioux
!!!MLC: Standing Rock Reservation, South Dakota, United States of America
!!!ARL: 45.9/-100.7#
!!!catalog: Catalogue No. 545
!!!PPG: 442
!!!EFL: 187/245
!!!VTS: 620907922
